X: 219
%
U:~=!turn!
T: The Haggis
C:Captain Fraser
O:Scotland
B:Keith Norman MacDonald : "The Skye collection of the best reels & strathspeys extant" : 1887
Z:Ralph Palmer
R:Reel
M:C
L:1/8
K:F lydian
F |: (E/F/G) Fc (GE)EF | (E/F/G) GB c2 ce | (E/F/G) Gc (Gc)GE | D/D/D _BD F2 F[1D:| [2 f| ecgc eccf | ecgc f2 (fa) |
ecgc acgc | d/d/d _bd f2 (fa) | ecgc eccf | ecge fagf | ecdB cAGE | D/D/D (_BD) F2 FD |]


